!!!SOCIAL_FUNCTION:	deer dance songs
!!!PDT:	1932
!!!OTL: No_82_Song_of_the_Nighthawk_(d).krn
!!!REG: Southwest
!!!LANG: Non-Tone
!!!LING_GROUP: Yuman-Cochimi
**kern	**kern
*staff2	*staff1
=1-	=1-
*clefF4	*clefF4
*k[f#]	*k[f#]
*M2/4	*M2/4
2r	4..E\
.	16B\
=2	=2
2r	8.B\L
.	16G\Jk
.	12G\L
.	12F#\
.	12G\J
=3||	=3||
*M3/4	*M3/4
2.r	4.G\
.	8E\
.	8E\
.	8r
=4||	=4||
*M2/4	*M2/4
2r	8.F#\L
.	16E\Jk
.	8.F#\L
.	16E\Jk
=5	=5
2r	8.G\L
.	16F#\Jk
.	12G\L
.	12E\
.	12E\J
=6||	=6||
*M3/4	*M3/4
2.r	4.F#\
.	8G\
.	8r
.	8A\
=7||	=7||
*M2/4	*M2/4
2r	4E\
.	8.E\L
.	16F#\Jk
=8	=8
2r	8.G\L
.	16E\Jk
.	8.E/L
.	16BB/Jk
=9||	=9||
*M3/4	*M3/4
2.r	4E\
.	4r
.	8r
.	8E\
=10||	=10||
*M2/4	*M2/4
2r	4C/
.	8.C/L
.	16E/Jk
=11	=11
2r	8E\
.	8r
.	8.C/L
.	16E/Jk
=12	=12
2r	8.E\L
.	16E\Jk
.	8.E/L
.	16C/Jk
=13||	=13||
*M3/4	*M3/4
2.r	4E\
.	4r
.	8r
.	16r
.	16E\
=14||	=14||
*M2/4	*M2/4
2r	8.F#\L
.	16E\Jk
.	8.F#\L
.	16E\Jk
=15	=15
2r	8.G\L
.	16F#\Jk
.	12G\L
.	12E\
.	12E\J
=16||	=16||
*M3/4	*M3/4
2.r	4.F#\
.	8G\
.	8r
.	8A\
=17||	=17||
*M2/4	*M2/4
2r	4E\
.	8.E\L
.	16F#\Jk
=18	=18
2r	8.G\L
.	16E\Jk
.	8.E/L
.	16BB/Jk
=19||	=19||
*M3/4	*M3/4
2.r	4E\
.	4r
.	8r
.	8C/
=20||	=20||
*M2/4	*M2/4
2r	4E\
.	8.E\L
.	16E\Jk
=21	=21
2r	4E\
.	8.C/L
.	16E/Jk
=22	=22
2r	8.E\L
.	16E\Jk
.	8.E\L
.	16E\Jk
=23	=23
2r	4E\
.	4r
==	==
*-	*-
